packages/ui-icons/svg/Line/page-up.svg

<svg viewBox="0 0 1920 1920" xmlns="http://www.w3.org/2000/svg">
    <path d="M168 113.074h1583.02V.001H168v113.073Zm0 226.144h1583.02V226.146H168v113.072Zm296.929 688.185 80.056 80.055 355.727-355.84V1920h113.073V751.618l355.727 355.84 80.056-80.055-492.319-492.206-492.32 492.206Z" fill-rule="evenodd"/>
</svg>

<svg viewBox="0 0 1920 1920" version="1.1" xmlns="http://www.w3.org/2000/svg">
    <path d="M168,113.074 L1751.02,113.074 L1751.02,0.001 L168,0.001 L168,113.074 Z M168,339.218 L1751.02,339.218 L1751.02,226.146 L168,226.146 L168,339.218 Z M464.929,1027.403 L544.985,1107.458 L900.712,751.618 L900.712,1920 L1013.785,1920 L1013.785,751.618 L1369.512,1107.458 L1449.568,1027.403 L957.249,535.197 L464.929,1027.403 Z" stroke="none" stroke-width="1" fill-rule="evenodd"/>
</svg>
